X: 103
T: No_31_If_I_Had_Been_a_Man.krn
%%abc-version 2.0
%%abcx-abcm2ps-target-version 5.9.1 (29 Sep 2008)
%%abc-creator hum2abc beta
%%abcx-conversion-date 2020/08/10 18:54:57
%%gracespace 0 6 6
%%humdrum-veritas 561029279
%%humdrum-veritas-data 3452116224
%%linebreak <none>
%%barnumbers 0
L: 1/8
M: 2/4
%%staves {1 2}
V: 1 clef=bass
V: 2 clef=bass
K: Bb
[V:1] [K:clef=bass][M:2/4]F,F F3/F/ | 
[V:2] [K:clef=bass][M:2/4]G,,G,, G,,G,, | 
[V:1] F(3:2:2D/B, B,G,3//B,// | 
[V:2] G,,G,, G,,G,, | 
[V:1] B,B,/B,/ (3B,B,B, | 
[V:2] z4 | 
[V:1] B,>B, (3B,B,B, | 
[V:2] z4 | 
[V:1] DD DF3//D// | 
[V:2] z4 | 
[V:1] C2D/B,/B,/G,/ | 
[V:2] z4 | 
[V:1] B,/>C/B,/G,/ (3F,F,F, | 
[V:2] z4 | 
[V:1] B,B, B,/>C/B,/G,/ ||  
[V:2] z4 ||  
[V:1] [M:3/4](3F,F,D, (3F,F,D, (3F,F,D, | 
[V:2] [M:3/4]z6 | 
[V:1] B,,6 |]  
[V:2] z6 |]  


